fs/send_copy_20_filled.svg

<svg viewBox="0 0 20 20" fill="none" xmlns="http://www.w3.org/2000/svg" height="1em" width="1em">
  <path d="M8.46967 2.21967C8.76256 1.92678 9.23744 1.92678 9.53033 2.21967L12.0303 4.71967C12.3232 5.01256 12.3232 5.48744 12.0303 5.78033C11.7374 6.07322 11.2626 6.07322 10.9697 5.78033L9.75 4.56066V11.25C9.75 11.6642 9.41421 12 9 12C8.58579 12 8.25 11.6642 8.25 11.25V4.56066L7.03033 5.78033C6.73744 6.07322 6.26256 6.07322 5.96967 5.78033C5.67678 5.48744 5.67678 5.01256 5.96967 4.71967L8.46967 2.21967ZM5.56836 16.5C5.79038 17.3626 6.57343 18 7.50535 18H13.0054C15.4906 18 17.5054 15.9853 17.5054 13.5V11.25C17.5054 10.8358 17.1696 10.5 16.7554 10.5C16.3411 10.5 16.0054 10.8358 16.0054 11.25V13.5C16.0054 15.1569 14.6622 16.5 13.0054 16.5H5.56836ZM4.5 8.75C4.5 8.33579 4.16421 8 3.75 8C3.33579 8 3 8.33579 3 8.75V13.5C3 14.6046 3.89543 15.5 5 15.5H13C14.1046 15.5 15 14.6046 15 13.5V8.75C15 8.33579 14.6642 8 14.25 8C13.8358 8 13.5 8.33579 13.5 8.75V13.5C13.5 13.7761 13.2761 14 13 14H5C4.72386 14 4.5 13.7761 4.5 13.5V8.75Z" fill="#212121"/>
</svg>

<svg viewBox="0 0 20 20" fill="none" xmlns="http://www.w3.org/2000/svg" height="1em" width="1em">
  <path d="M8.47 2.22a.75.75 0 0 1 1.06 0l2.5 2.5a.75.75 0 0 1-1.06 1.06L9.75 4.56v6.69a.75.75 0 0 1-1.5 0V4.56L7.03 5.78a.75.75 0 0 1-1.06-1.06l2.5-2.5ZM5.568 16.5A2 2 0 0 0 7.505 18h5.5a4.5 4.5 0 0 0 4.5-4.5v-2.25a.75.75 0 0 0-1.5 0v2.25a3 3 0 0 1-3 3H5.568ZM4.5 8.75a.75.75 0 0 0-1.5 0v4.75a2 2 0 0 0 2 2h8a2 2 0 0 0 2-2V8.75a.75.75 0 0 0-1.5 0v4.75a.5.5 0 0 1-.5.5H5a.5.5 0 0 1-.5-.5V8.75Z" fill="#212121"/>
</svg>
